X: 3194
Q: "Reel."
M: C
L: 1/8
K: Eb
|:\
e2ge c2ec | (Bc)BA GFE2 |\
|:\
edef geBG | BAFD B,DFA |\
[1 GBef geBG | BAFD E2B2 :|\
[2 GEDE CF=EF | DAFD E2B2 |]



